Gruvbox-Plus-Dark/actions/symbolic/document-print-preview-symbolic.svg

<svg version="1.1" viewBox="0 0 16 16" xmlns="http://www.w3.org/2000/svg">
  <defs>
    <style type="text/css">.ColorScheme-Text { color:#ebdbb2; } .ColorScheme-Highlight { color:#458588; }</style>
  </defs>
  <path class="ColorScheme-Text" fill="currentColor" d="m4 1v2h8v-2zm-2 3c-0.5 0-1 0.5-1 1v4c0 0.5 0.5 1 1 1h1v-2h4.732c0.688-0.7603 1.67-1.25 2.768-1.25 1.873 0 3.427 1.403 3.695 3.205 0.426-0.1076 0.8047-0.5215 0.8047-0.9551v-4c0-0.5-0.5-1-1-1zm8.5 3.75c-1.519 0-2.75 1.231-2.75 2.75 0 1.519 1.231 2.75 2.75 2.75 0.4698-0.0027 0.9311-0.1258 1.34-0.3574 0 0 2.2 2.214 2.195 2.205 0.3917 0.3917 0.9445 0.4696 1.238 0.1758 0.2938-0.2938 0.216-0.8465-0.1758-1.238l-2.205-2.195c0.2316-0.4088 0.3547-0.87 0.3574-1.34 0-1.519-1.231-2.75-2.75-2.75zm0 1c0.9665 0 1.75 0.7835 1.75 1.75 0 0.9665-0.7835 1.75-1.75 1.75-0.9665 0-1.75-0.7835-1.75-1.75 0-0.9665 0.7835-1.75 1.75-1.75zm-6.5 0.25v5h5.193c-1.42-0.536-2.443-1.901-2.443-3.5 0-0.5328 0.1168-1.039 0.3203-1.5z"/>
</svg>

<svg xmlns="http://www.w3.org/2000/svg" width="16" height="16" version="1.1">
 <path style="fill:#ebdbb2" d="M 2 4 C 1.5 4 1 4.5 1 5 L 1 9 C 1 9.5 1.5 10 2 10 L 3 10 L 3 8 L 7.7324 8 C 8.4204 7.2397 9.4025 6.75 10.5 6.75 C 12.373 6.75 13.927 8.1529 14.195 9.9551 C 14.621 9.8475 15 9.4336 15 9 L 15 5 C 15 4.5 14.5 4 14 4 L 2 4 z"/>
 <path style="fill:#ebdbb2" d="M 4,1 V 3 H 12 V 1 Z"/>
 <path style="fill:#ebdbb2" d="M 4,9 V 14 H 9.1934 C 7.7738,13.464 6.75,12.099 6.75,10.5 6.75,9.9672 6.8668,9.4606 7.0703,9 Z"/>
 <path style="fill:#ebdbb2" d="M 10.5,7.7498 A 2.75,2.75 0 0 0 7.75,10.5 2.75,2.75 0 0 0 10.5,13.25 2.75,2.75 0 0 0 13.25,10.5 2.75,2.75 0 0 0 10.5,7.7498 Z M 10.5,8.75 A 1.75,1.75 0 0 1 12.25,10.5 1.75,1.75 0 0 1 10.5,12.25 1.75,1.75 0 0 1 8.75,10.5 1.75,1.75 0 0 1 10.5,8.75 Z"/>
 <path style="fill:#ebdbb2" d="M 17.6,-0.75 H 20.6 C 21.154,-0.75 21.6,-0.4155 21.6,0 21.6,0.4155 21.154,0.75 20.6,0.75 H 17.6 C 17.046,0.75 16.6,0.4155 16.6,0 16.6,-0.4155 17.046,-0.75 17.6,-0.75 Z" transform="rotate(45)"/>
</svg>
